X: 1
T: Gan Ainm
M: 3/4
L: 1/8
R: waltz
K: Dmix
D3EF2|A4F2|G2F2G2|A6|D3EF2|A4G2|
F2E2D2|E6|F3ED2|F2A2F2|F2G2A2|d4A2|
=c3BA2|B3AG2|1A6-|A4A2:|2G2F2G2|A4A2||
d3ef2|e2a2e2|d3fd2|A2d2A2|B3AG2|A2F2A2|
G2A2B2|A2B2^c2|d3ef2|e2a2e2|d3fd2|A2d2A2|
=c3BA2|B3AG2|G2F2G2|A6||
